X:1
T:Godfather theme
T:Godfather theme
T:Nino Rota
%%score 1 2 3
L:1/8
Q:1/4=75
M:4/4
K:D
V:1 treble nm="Mandolin" snm="Mdn."
V:2 treble nm="Mandolin" snm="Mdn."
V:3 treble-8 nm="Octave Mandolin" snm="OM."
V:1
"^slow" z4 z FBd |: cBdB cBGA | F4 z FBd | cBdB cBF=F | E4 z EG_B | c4- cEG_B | B4 z B,DA |1,2 %7
 GFAG GFFC | B,4 z (3BBB _B | A4 z cBG | F4 z FAF | E4- EEG=F | F4 z FBd :|3 GFAG GFF_B || B8 |] %15
V:2
 z8 |: z8 | z FcA F4 | z8 | z EBG E4 | z2 A2 c4 | z2 G2 B,4 |1,2 GFAG GFFF | B4 z4 | z2 c2 A4 | %10
 z2 c2 F4 | z2 B2 E2 z2 | z2 A2 F4 :|3 GFAG GFF_B || B8 |] %15
V:3
 z4 z2 B2 |: c2 d2 c2 B2 | F2 A2 c2 F2 | B2 d2 d2 F2 | E2 G2 B2 E2 | A2 c2 A2 G2 | B2 G2 D2 B2 |1,2 %7
 G2 A2 G2 F2 | [B,DBf]4 z4 | A2 c2 A2 B2 | F2 c2 A2 F2 | E2 G2 E2 G2 | [A,Fc]4 z2 B2 :|3 %13
 G2 A2 G2 F2 || [B,DBf]8 |] %15

